X:0
T:Joy to the World
C:George Handel
M:2/4
L:1/8
Q:1/4=88
K:D

d2 c>B | A2>G2 | F2 E2 | D2>A2 | B2>B2 |
c2>c2 | d7 d | d c B A | A>G F d | d c B A |
A>G F F | F F F F/2 G/2 | A3 G/2 F/2 | 
E E E E/2 F/2 | G3 F/2 E/2 | D d2 B |
A>G F G | F2 E2 | D2